assets/robots-logo2.svg

<svg viewBox="0 0 164 28" fill="none" xmlns="http://www.w3.org/2000/svg">
  <path fill-rule="evenodd" clip-rule="evenodd" d="M129.596 14.4071c0 2.9789 1.876 4.8257 4.915 4.8257 2.978 0 4.885-1.8767 4.885-4.7959 0-3.0085-1.877-4.88516-4.885-4.88516-3.009 0-4.915 1.87666-4.915 4.85536Zm14.907-.0303c0 4.9652-3.978 8.265-9.961 8.265-6.137 0-10.054-3.269-10.054-8.3883 0-4.84185 4.071-8.14168 10.023-8.14168 6.014 0 9.992 3.29983 9.992 8.26498ZM113.199 21.9345l-7.678-15.22972 5.49-.00494 4.601 10.17596 4.756-10.18103 4.983-.00776-10.087 21.31179-4.939.0015s2.497-5.2264 2.874-6.0658ZM158.737 14.7731c0 2.0895-1.742 3.5708-3.737 3.5708s-3.737-1.7123-3.737-3.5708V6.70605h-5.006v7.54685c0 4.5276 4.28 8.211 8.743 8.211 4.462 0 8.743-3.6834 8.743-8.211V6.70605h-5.006v8.06705ZM94.7109 13.0988l9.7301-9.53029L101.354.5 88.2506 13.1995v4.1997H99.115v10.5801h4.917V13.0988h-9.3211ZM0 1.47754V22.0774h5.20494v-8.2579H16.6429V9.58883H5.20494v-3.887H17.7274V1.47754H0ZM50.6842 14.383c0-5.02232 3.5124-8.2004 9.3168-8.2004 5.9806 0 9.32 3.15051 9.32 8.8v.6494H56.0886c0 2.2411 1.6236 3.697 3.9124 3.697 1.8315 0 3.2046-.8298 3.7756-2.2485h5.2908c-1.285 3.4932-4.4865 5.5359-9.0664 5.5359-5.7429 0-9.3168-3.1802-9.3168-8.2334Zm9.4336-5.02232c-2.2337 0-3.7215 1.19382-3.887 3.09432h7.776c-.173-1.9005-1.6628-3.09432-3.889-3.09432Zm-15.9182-.6239V6.72479H39.398V22.0784h4.8016v-6.8655c0-3.0953 1.718-4.9418 4.5183-4.9418.5422 0 1.2586.0298 1.5153.0573V6.29612c-.3724-.05732-.9985-.11352-1.3423-.11352-1.7424 0-3.2587.85523-4.6913 2.55418ZM18.2676 14.382c0-5.02132 3.6566-8.1994 9.8091-8.1994 6.1514 0 9.7773 3.17808 9.7773 8.1994 0 5.0542-3.6875 8.2344-9.7773 8.2344-6.091 0-9.8091-3.1802-9.8091-8.2344Zm5.2037.0329c0 2.6985 1.8018 4.5437 4.6054 4.5437 2.7452 0 4.5735-1.8781 4.5735-4.5766 0-2.6879-1.8283-4.53851-4.5735-4.53851-2.8036 0-4.6054 1.87611-4.6054 4.57141Zm58.1196-7.69329h6.2013L81.1877 14.382l7.063 7.6954h-6.3775l-3.5452-4.2839-3.4032 4.2839h-6.2935l6.8369-7.8334-6.0899-7.52239h6.005l3.0274 4.08749 3.1802-4.08749Z" fill="#74777E"/>
</svg>

<svg width="164" height="28" viewBox="0 0 164 28" fill="none" xmlns="http://www.w3.org/2000/svg">
<path fill-rule="evenodd" clip-rule="evenodd" d="M129.596 14.4071C129.596 17.386 131.472 19.2328 134.511 19.2328C137.489 19.2328 139.396 17.3561 139.396 14.4369C139.396 11.4284 137.519 9.55174 134.511 9.55174C131.502 9.55174 129.596 11.4284 129.596 14.4071ZM144.503 14.3768C144.503 19.342 140.525 22.6418 134.542 22.6418C128.405 22.6418 124.488 19.3728 124.488 14.2535C124.488 9.41165 128.559 6.11182 134.511 6.11182C140.525 6.11182 144.503 9.41165 144.503 14.3768Z" fill="#74777E"/>
<path fill-rule="evenodd" clip-rule="evenodd" d="M113.199 21.9345L105.521 6.70478L111.011 6.69984L115.612 16.8758L120.368 6.69477L125.351 6.68701L115.264 27.9988L110.325 28.0003C110.325 28.0003 112.822 22.7739 113.199 21.9345Z" fill="#74777E"/>
<path fill-rule="evenodd" clip-rule="evenodd" d="M158.737 14.7731C158.737 16.8626 156.995 18.3439 155 18.3439C153.005 18.3439 151.263 16.6316 151.263 14.7731V6.70605H146.257V14.2529C146.257 18.7805 150.537 22.4639 155 22.4639C159.462 22.4639 163.743 18.7805 163.743 14.2529V6.70605H158.737V14.7731Z" fill="#74777E"/>
<path fill-rule="evenodd" clip-rule="evenodd" d="M94.7109 13.0988L104.441 3.56851L101.354 0.5L88.2506 13.1995V17.3992H99.115V27.9793H104.032V13.0988H94.7109Z" fill="#74777E"/>
<path fill-rule="evenodd" clip-rule="evenodd" d="M0 1.47754V22.0774H5.20494V13.8195H16.6429V9.58883H5.20494V5.70183H17.7274V1.47754H0ZM50.6842 14.383C50.6842 9.36068 54.1966 6.1826 60.001 6.1826C65.9816 6.1826 69.321 9.33311 69.321 14.9826V15.632H56.0886C56.0886 17.8731 57.7122 19.329 60.001 19.329C61.8325 19.329 63.2056 18.4992 63.7766 17.0805H69.0674C67.7824 20.5737 64.5809 22.6164 60.001 22.6164C54.2581 22.6164 50.6842 19.4362 50.6842 14.383ZM60.1178 9.36068C57.8841 9.36068 56.3963 10.5545 56.2308 12.455H64.0068C63.8338 10.5545 62.344 9.36068 60.1178 9.36068ZM44.1996 8.73678V6.72479H39.398V22.0784H44.1996V15.2129C44.1996 12.1176 45.9176 10.2711 48.7179 10.2711C49.2601 10.2711 49.9765 10.3009 50.2332 10.3284V6.29612C49.8608 6.2388 49.2347 6.1826 48.8909 6.1826C47.1485 6.1826 45.6322 7.03783 44.1996 8.73678ZM18.2676 14.382C18.2676 9.36068 21.9242 6.1826 28.0767 6.1826C34.2281 6.1826 37.854 9.36068 37.854 14.382C37.854 19.4362 34.1665 22.6164 28.0767 22.6164C21.9857 22.6164 18.2676 19.4362 18.2676 14.382ZM23.4713 14.4149C23.4713 17.1134 25.2731 18.9586 28.0767 18.9586C30.8219 18.9586 32.6502 17.0805 32.6502 14.382C32.6502 11.6941 30.8219 9.84349 28.0767 9.84349C25.2731 9.84349 23.4713 11.7196 23.4713 14.4149ZM81.5909 6.72161H87.7922L81.1877 14.382L88.2507 22.0774H81.8732L78.328 17.7935L74.9248 22.0774H68.6313L75.4682 14.244L69.3783 6.72161H75.3833L78.4107 10.8091L81.5909 6.72161Z" fill="#74777E"/>
</svg>
